X:55
T: John Doherty's (B)
S: J.Kelly - P.O'Brien
Z: B.Black
R: reel
M: 4/4
L: 1/8
K: D
d2 cd BdAc |d2 fd adfd |d2 cd Bd A2 |fbb^g afec |
d2 cd BdAc |d2 fd adfd |d2 cd Bd A2 |fbb^g afea ||
fd d2 fdfa |^ge e2 bege |fd d2 f2 de |fbb^g afea |
fd d2 fdfa |^ge e2 bege |fd d2 f2 de |fbb^g afec ||
